X:34
T: HOLZAEPFELBAEUMCHE
N: E1029
O: Europa, Mitteleuropa, Deutschland, Hessen, Frankfurt; Wetzlar
R: Tanz - Lied
M: 2/4
L: 1/8
K: F
 | c2cf | c2A
c | ccBG | A2z
F | cccf | ccA
c | ccBB | F2z2

